pk/nintendo-switch.svg

<svg viewBox="0 0 48 48" fill="none" xmlns="http://www.w3.org/2000/svg" height="1em" width="1em">
  <path d="M6 18C6 12.3431 6 9.51472 7.75736 7.75736C9.51472 6 12.3431 6 18 6H20V42H18C12.3431 42 9.51472 42 7.75736 40.2426C6 38.4853 6 35.6569 6 30V18Z" fill="#2F88FF" stroke="black" stroke-width="4" stroke-linecap="round" stroke-linejoin="round"/>
  <path d="M42 18C42 12.3431 42 9.51472 40.2426 7.75736C38.4853 6 35.6569 6 30 6H28V42H30C35.6569 42 38.4853 42 40.2426 40.2426C42 38.4853 42 35.6569 42 30V18Z" fill="#2F88FF" stroke="black" stroke-width="4" stroke-linecap="round" stroke-linejoin="round"/>
  <path d="M35 13V15" stroke="white" stroke-width="4" stroke-linecap="round" stroke-linejoin="round"/>
  <path d="M13 33V35" stroke="white" stroke-width="4" stroke-linecap="round" stroke-linejoin="round"/>
</svg>

<svg viewBox="0 0 48 48" fill="none" xmlns="http://www.w3.org/2000/svg" height="1em" width="1em">
  <path d="M6 18c0-5.657 0-8.485 1.757-10.243C9.515 6 12.343 6 18 6h2v36h-2c-5.657 0-8.485 0-10.243-1.757C6 38.485 6 35.657 6 30V18Zm36 0c0-5.657 0-8.485-1.757-10.243C38.485 6 35.657 6 30 6h-2v36h2c5.657 0 8.485 0 10.243-1.757C42 38.485 42 35.657 42 30V18Z" fill="#2F88FF" stroke="#000" stroke-width="4" stroke-linecap="round" stroke-linejoin="round"/>
  <path d="M35 13v2M13 33v2" stroke="#fff" stroke-width="4" stroke-linecap="round" stroke-linejoin="round"/>
</svg>
